public/img/vanuatu/terms-of-withdrawal.svg

<?xml version="1.0" encoding="UTF-8" standalone="no"?>
<svg width="36px" height="30px" viewBox="0 0 36 30" version="1.1" xmlns="http://www.w3.org/2000/svg" xmlns:xlink="http://www.w3.org/1999/xlink">
    <!-- Generator: sketchtool 40.3 (33839) - http://www.bohemiancoding.com/sketch -->
    <title>836AC44F-A275-4149-9C06-B7933CDCC1BA</title>
    <desc>Created with sketchtool.</desc>
    <defs>
        <path d="M7,15 C10.3137085,15 13,12.3137085 13,9 C13,5.6862915 10.3137085,3 7,3 C3.6862915,3 1,5.6862915 1,9 C1,12.3137085 3.6862915,15 7,15 Z" id="path-1"></path>
        <mask id="mask-2" maskContentUnits="userSpaceOnUse" maskUnits="objectBoundingBox" x="0" y="0" width="12" height="12" fill="white">
            <use xlink:href="#path-1"></use>
        </mask>
    </defs>
    <g id="Lykke-World" stroke="none" stroke-width="1" fill="none" fill-rule="evenodd">
        <g id="lykke_vanuatu" transform="translate(-877.000000, -1001.000000)" stroke="#40474F">
            <g id="terms_of_withdrawal" transform="translate(878.000000, 1002.000000)">
                <path d="M4.91235352,17 L2.99904325,17 C1.3427174,17 0,15.656688 0,14.0057979 L0,2.99420208 C0,1.34054993 1.34331243,0 3.00235843,0 L30.9976416,0 C32.6557983,0 34,1.34331197 34,2.99420208 L34,14.0057979 C34,15.6594501 32.6648828,17 31.0030636,17 L29.1140137,17" id="Rectangle-26" stroke-width="2" stroke-linecap="round" fill="#FFFFFF"></path>
                <g id="Group-17-Copy" transform="translate(17.000000, 16.000000) rotate(90.000000) translate(-17.000000, -16.000000) translate(5.000000, 7.000000)">
                    <path d="M0,0 L22.9993054,0 C23.5519738,0 24,0.444946289 24,0.993397683 L24,17.0066023 C24,17.5552407 23.5525308,18 22.9993054,18 L0,18" id="Rectangle-26" stroke-width="2" stroke-linecap="round" stroke-linejoin="round" fill="#FFFFFF"></path>
                    <use id="Oval-12" mask="url(#mask-2)" stroke-width="4" xlink:href="#path-1"></use>
                </g>
            </g>
        </g>
    </g>
</svg>

<svg width="36" height="30" viewBox="0 0 36 30" xmlns="http://www.w3.org/2000/svg" xmlns:xlink="http://www.w3.org/1999/xlink"><title>836AC44F-A275-4149-9C06-B7933CDCC1BA</title><defs><path d="M7 15c3.314 0 6-2.686 6-6s-2.686-6-6-6-6 2.686-6 6 2.686 6 6 6z" id="a"/><mask id="b" x="0" y="0" width="12" height="12" fill="#fff"><use xlink:href="#a"/></mask></defs><g stroke="#40474F" fill="none" fill-rule="evenodd"><path d="M5.912 18H4c-1.657 0-3-1.343-3-2.994V3.994C1 2.34 2.343 1 4.002 1h27.996C33.656 1 35 2.343 35 3.994v11.012C35 16.66 33.665 18 32.003 18h-1.89" stroke-width="2" stroke-linecap="round" fill="#FFF"/><g transform="rotate(90 11 16)"><path d="M0 0h23c.552 0 1 .445 1 .993v16.014c0 .548-.447.993-1 .993H0" stroke-width="2" stroke-linecap="round" stroke-linejoin="round" fill="#FFF"/><use mask="url(#b)" stroke-width="4" xlink:href="#a"/></g></g></svg>
